!!!OTL: LEBE LIEBE TRINKE
!!!ARE: Europa, Mitteleuropa, Deutschland
!!!SCT: B0555
!!!YEM: Copyright 1995, estate of Helmut Schaffrath.
**kern
*ICvox
*Ivox
*M4/4
*k[b-]
*F:
=1
{4f
4c
4g
4c
=2
4.cc
8dd
8cc
8b-
8a
8g}
=3
{4f
4f
4g
4a
=4
4g
4c
4c
4r}
=5
{4.cc
8a
4f
4f
=6
4dd
4cc
4b-
4a}
=7
{4g
4a
4.b-
8dd
=8
4cc
4e
4f
4r}
==
!!!AGN: Studenten -, Trink - Lied, Rund - Gesang
!!!ONB: ESAC (Essen Associative Code) Database: BOEHME
!!!AMT: simple quadruple
!!!AIN: vox
!!!EED: Helmut Schaffrath
!!!EEV: 1.0
*-
